images/3233337.svg

<?xml version="1.0" encoding="UTF-8"?>
<svg xmlns="http://www.w3.org/2000/svg" xmlns:xlink="http://www.w3.org/1999/xlink" width="300pt" height="300pt" viewBox="0 0 300 300" version="1.1">
<defs>
<g>
<symbol overflow="visible" id="glyph0-0">
<path style="stroke:none;" d="M 0.453125 1.59375 L 0.453125 -6.34375 L 4.953125 -6.34375 L 4.953125 1.59375 Z M 0.953125 1.09375 L 4.453125 1.09375 L 4.453125 -5.84375 L 0.953125 -5.84375 Z M 0.953125 1.09375 "/>
</symbol>
<symbol overflow="visible" id="glyph0-1">
<path style="stroke:none;" d="M 0.890625 -6.5625 L 2.078125 -6.5625 L 4.984375 -1.078125 L 4.984375 -6.5625 L 5.84375 -6.5625 L 5.84375 0 L 4.65625 0 L 1.75 -5.484375 L 1.75 0 L 0.890625 0 Z M 0.890625 -6.5625 "/>
</symbol>
<symbol overflow="visible" id="glyph0-2">
<path style="stroke:none;" d="M 0.890625 -6.5625 L 1.765625 -6.5625 L 1.765625 -3.875 L 5 -3.875 L 5 -6.5625 L 5.890625 -6.5625 L 5.890625 0 L 5 0 L 5 -3.125 L 1.765625 -3.125 L 1.765625 0 L 0.890625 0 Z M 0.890625 -6.5625 "/>
</symbol>
<symbol overflow="visible" id="glyph0-3">
<path style="stroke:none;" d="M 3.546875 -5.953125 C 2.898438 -5.953125 2.382812 -5.710938 2 -5.234375 C 1.625 -4.753906 1.4375 -4.101562 1.4375 -3.28125 C 1.4375 -2.445312 1.625 -1.789062 2 -1.3125 C 2.382812 -0.832031 2.898438 -0.59375 3.546875 -0.59375 C 4.191406 -0.59375 4.703125 -0.832031 5.078125 -1.3125 C 5.453125 -1.789062 5.640625 -2.445312 5.640625 -3.28125 C 5.640625 -4.101562 5.453125 -4.753906 5.078125 -5.234375 C 4.703125 -5.710938 4.191406 -5.953125 3.546875 -5.953125 Z M 3.546875 -6.6875 C 4.460938 -6.6875 5.195312 -6.375 5.75 -5.75 C 6.300781 -5.132812 6.578125 -4.3125 6.578125 -3.28125 C 6.578125 -2.238281 6.300781 -1.410156 5.75 -0.796875 C 5.195312 -0.179688 4.460938 0.125 3.546875 0.125 C 2.617188 0.125 1.878906 -0.179688 1.328125 -0.796875 C 0.773438 -1.410156 0.5 -2.238281 0.5 -3.28125 C 0.5 -4.3125 0.773438 -5.132812 1.328125 -5.75 C 1.878906 -6.375 2.617188 -6.6875 3.546875 -6.6875 Z M 3.546875 -6.6875 "/>
</symbol>
<symbol overflow="visible" id="glyph0-4">
<path style="stroke:none;" d="M 0.890625 -6.5625 L 4.65625 -6.5625 L 4.65625 -5.8125 L 1.765625 -5.8125 L 1.765625 -3.875 L 4.375 -3.875 L 4.375 -3.140625 L 1.765625 -3.140625 L 1.765625 0 L 0.890625 0 Z M 0.890625 -6.5625 "/>
</symbol>
</g>
</defs>
<g id="surface29509">
<rect x="0" y="0" width="300" height="300" style="fill:rgb(100%,100%,100%);fill-opacity:1;stroke:none;"/>
<path style="fill:none;stroke-width:1.2;stroke-linecap:butt;stroke-linejoin:miter;stroke:rgb(0%,0%,0%);stroke-opacity:1;stroke-miterlimit:10;" d="M 35.25 131.660156 L 48.652344 144.230469 "/>
<path style="fill:none;stroke-width:1.2;stroke-linecap:butt;stroke-linejoin:miter;stroke:rgb(0%,0%,0%);stroke-opacity:1;stroke-miterlimit:10;" d="M 48.652344 144.230469 L 44.46875 162.121094 "/>
<path style="fill:none;stroke-width:1.2;stroke-linecap:butt;stroke-linejoin:miter;stroke:rgb(0%,0%,0%);stroke-opacity:1;stroke-miterlimit:10;" d="M 48.652344 144.230469 L 57.449219 141.566406 "/>
<path style="fill:none;stroke-width:1.2;stroke-linecap:butt;stroke-linejoin:miter;stroke:rgb(0%,0%,100%);stroke-opacity:1;stroke-miterlimit:10;" d="M 57.449219 141.566406 L 66.242188 138.90625 "/>
<path style="fill:none;stroke-width:1.2;stroke-linecap:butt;stroke-linejoin:miter;stroke:rgb(0%,0%,100%);stroke-opacity:1;stroke-miterlimit:10;" d="M 66.242188 138.90625 L 72.945312 145.191406 "/>
<path style="fill:none;stroke-width:1.2;stroke-linecap:butt;stroke-linejoin:miter;stroke:rgb(0%,0%,0%);stroke-opacity:1;stroke-miterlimit:10;" d="M 72.945312 145.191406 L 79.648438 151.476562 "/>
<path style=" stroke:none;fill-rule:nonzero;fill:rgb(100%,100%,100%);fill-opacity:1;" d="M 59.242188 133.40625 L 73.242188 133.40625 L 73.242188 144.40625 L 59.242188 144.40625 Z M 59.242188 133.40625 "/>
<g style="fill:rgb(0%,0%,100%);fill-opacity:1;">
  <use xlink:href="#glyph0-1" x="59.242188" y="142.069336"/>
  <use xlink:href="#glyph0-2" x="66.219727" y="142.069336"/>
</g>
<path style="fill:none;stroke-width:1.2;stroke-linecap:butt;stroke-linejoin:miter;stroke:rgb(0%,0%,0%);stroke-opacity:1;stroke-miterlimit:10;" d="M 77.542969 150.984375 L 75.449219 159.929688 "/>
<path style="fill:none;stroke-width:1.2;stroke-linecap:butt;stroke-linejoin:miter;stroke:rgb(100%,0%,0%);stroke-opacity:1;stroke-miterlimit:10;" d="M 75.449219 159.929688 L 73.359375 168.878906 "/>
<path style="fill:none;stroke-width:1.2;stroke-linecap:butt;stroke-linejoin:miter;stroke:rgb(0%,0%,0%);stroke-opacity:1;stroke-miterlimit:10;" d="M 81.75 151.96875 L 79.660156 160.914062 "/>
<path style="fill:none;stroke-width:1.2;stroke-linecap:butt;stroke-linejoin:miter;stroke:rgb(100%,0%,0%);stroke-opacity:1;stroke-miterlimit:10;" d="M 79.660156 160.914062 L 77.566406 169.863281 "/>
<path style="fill:none;stroke-width:1.2;stroke-linecap:butt;stroke-linejoin:miter;stroke:rgb(0%,0%,0%);stroke-opacity:1;stroke-miterlimit:10;" d="M 79.648438 151.476562 L 88.441406 148.8125 "/>
<path style="fill:none;stroke-width:1.2;stroke-linecap:butt;stroke-linejoin:miter;stroke:rgb(0%,0%,100%);stroke-opacity:1;stroke-miterlimit:10;" d="M 88.441406 148.8125 L 97.234375 146.152344 "/>
<path style=" stroke:none;fill-rule:nonzero;fill:rgb(100%,100%,100%);fill-opacity:1;" d="M 71.460938 163.871094 L 79.460938 163.871094 L 79.460938 174.871094 L 71.460938 174.871094 Z M 71.460938 163.871094 "/>
<g style="fill:rgb(100%,0%,0%);fill-opacity:1;">
  <use xlink:href="#glyph0-3" x="71.460938" y="172.53418"/>
</g>
<path style="fill:none;stroke-width:1.2;stroke-linecap:butt;stroke-linejoin:miter;stroke:rgb(0%,0%,100%);stroke-opacity:1;stroke-miterlimit:10;" d="M 97.234375 146.152344 L 99.328125 137.207031 "/>
<path style="fill:none;stroke-width:1.2;stroke-linecap:butt;stroke-linejoin:miter;stroke:rgb(0%,0%,0%);stroke-opacity:1;stroke-miterlimit:10;" d="M 99.328125 137.207031 L 101.417969 128.257812 "/>
<path style="fill:none;stroke-width:1.2;stroke-linecap:butt;stroke-linejoin:miter;stroke:rgb(0%,0%,0%);stroke-opacity:1;stroke-miterlimit:10;" d="M 110.640625 158.722656 L 103.9375 152.4375 "/>
<path style="fill:none;stroke-width:1.2;stroke-linecap:butt;stroke-linejoin:miter;stroke:rgb(0%,0%,100%);stroke-opacity:1;stroke-miterlimit:10;" d="M 103.9375 152.4375 L 97.234375 146.152344 "/>
<path style=" stroke:none;fill-rule:nonzero;fill:rgb(100%,100%,100%);fill-opacity:1;" d="M 94.234375 140.652344 L 101.234375 140.652344 L 101.234375 151.652344 L 94.234375 151.652344 Z M 94.234375 140.652344 "/>
<g style="fill:rgb(0%,0%,100%);fill-opacity:1;">
  <use xlink:href="#glyph0-1" x="94.234375" y="149.31543"/>
</g>
<path style="fill:none;stroke-width:1.2;stroke-linecap:butt;stroke-linejoin:miter;stroke:rgb(0%,0%,0%);stroke-opacity:1;stroke-miterlimit:10;" d="M 101.417969 128.257812 L 119.007812 122.9375 "/>
<path style="fill:none;stroke-width:1.2;stroke-linecap:butt;stroke-linejoin:miter;stroke:rgb(0%,0%,0%);stroke-opacity:1;stroke-miterlimit:10;" d="M 119.007812 122.9375 L 132.410156 135.507812 "/>
<path style="fill:none;stroke-width:1.2;stroke-linecap:butt;stroke-linejoin:miter;stroke:rgb(0%,0%,0%);stroke-opacity:1;stroke-miterlimit:10;" d="M 132.410156 135.507812 L 145.816406 148.078125 "/>
<path style="fill:none;stroke-width:1.2;stroke-linecap:butt;stroke-linejoin:miter;stroke:rgb(0%,0%,0%);stroke-opacity:1;stroke-miterlimit:10;" d="M 132.410156 135.507812 L 128.226562 153.398438 "/>
<path style="fill:none;stroke-width:1.2;stroke-linecap:butt;stroke-linejoin:miter;stroke:rgb(0%,0%,0%);stroke-opacity:1;stroke-miterlimit:10;" d="M 136.597656 117.613281 L 132.410156 135.507812 "/>
<path style="fill:none;stroke-width:1.2;stroke-linecap:butt;stroke-linejoin:miter;stroke:rgb(0%,0%,0%);stroke-opacity:1;stroke-miterlimit:10;" d="M 145.816406 148.078125 L 163.402344 142.753906 "/>
<path style="fill:none;stroke-width:1.2;stroke-linecap:butt;stroke-linejoin:miter;stroke:rgb(0%,0%,0%);stroke-opacity:1;stroke-miterlimit:10;" d="M 163.402344 142.753906 L 165.496094 133.804688 "/>
<path style="fill:none;stroke-width:1.2;stroke-linecap:butt;stroke-linejoin:miter;stroke:rgb(0%,0%,100%);stroke-opacity:1;stroke-miterlimit:10;" d="M 165.496094 133.804688 L 167.589844 124.859375 "/>
<path style="fill:none;stroke-width:1.2;stroke-linecap:butt;stroke-linejoin:miter;stroke:rgb(0%,0%,100%);stroke-opacity:1;stroke-miterlimit:10;" d="M 167.589844 124.859375 L 160.886719 118.574219 "/>
<path style="fill:none;stroke-width:1.2;stroke-linecap:butt;stroke-linejoin:miter;stroke:rgb(0%,0%,0%);stroke-opacity:1;stroke-miterlimit:10;" d="M 160.886719 118.574219 L 154.183594 112.289062 "/>
<path style="fill:none;stroke-width:1.2;stroke-linecap:butt;stroke-linejoin:miter;stroke:rgb(0%,0%,100%);stroke-opacity:1;stroke-miterlimit:10;" d="M 167.589844 124.859375 L 176.382812 122.199219 "/>
<path style="fill:none;stroke-width:1.2;stroke-linecap:butt;stroke-linejoin:miter;stroke:rgb(0%,0%,0%);stroke-opacity:1;stroke-miterlimit:10;" d="M 176.382812 122.199219 L 185.175781 119.535156 "/>
<path style=" stroke:none;fill-rule:nonzero;fill:rgb(100%,100%,100%);fill-opacity:1;" d="M 164.589844 119.359375 L 171.589844 119.359375 L 171.589844 130.359375 L 164.589844 130.359375 Z M 164.589844 119.359375 "/>
<g style="fill:rgb(0%,0%,100%);fill-opacity:1;">
  <use xlink:href="#glyph0-1" x="164.589844" y="128.022461"/>
</g>
<path style="fill:none;stroke-width:1.2;stroke-linecap:butt;stroke-linejoin:miter;stroke:rgb(0%,0%,0%);stroke-opacity:1;stroke-miterlimit:10;" d="M 154.183594 112.289062 L 136.597656 117.613281 "/>
<path style="fill:none;stroke-width:1.2;stroke-linecap:butt;stroke-linejoin:miter;stroke:rgb(0%,0%,0%);stroke-opacity:1;stroke-miterlimit:10;" d="M 187.28125 120.027344 L 189.375 111.082031 "/>
<path style="fill:none;stroke-width:1.2;stroke-linecap:butt;stroke-linejoin:miter;stroke:rgb(100%,0%,0%);stroke-opacity:1;stroke-miterlimit:10;" d="M 189.375 111.082031 L 191.464844 102.136719 "/>
<path style="fill:none;stroke-width:1.2;stroke-linecap:butt;stroke-linejoin:miter;stroke:rgb(0%,0%,0%);stroke-opacity:1;stroke-miterlimit:10;" d="M 183.070312 119.042969 L 185.164062 110.097656 "/>
<path style="fill:none;stroke-width:1.2;stroke-linecap:butt;stroke-linejoin:miter;stroke:rgb(100%,0%,0%);stroke-opacity:1;stroke-miterlimit:10;" d="M 185.164062 110.097656 L 187.253906 101.148438 "/>
<path style="fill:none;stroke-width:1.2;stroke-linecap:butt;stroke-linejoin:miter;stroke:rgb(0%,0%,0%);stroke-opacity:1;stroke-miterlimit:10;" d="M 185.175781 119.535156 L 198.582031 132.105469 "/>
<path style=" stroke:none;fill-rule:nonzero;fill:rgb(100%,100%,100%);fill-opacity:1;" d="M 185.359375 96.144531 L 193.359375 96.144531 L 193.359375 107.144531 L 185.359375 107.144531 Z M 185.359375 96.144531 "/>
<g style="fill:rgb(100%,0%,0%);fill-opacity:1;">
  <use xlink:href="#glyph0-3" x="185.359375" y="104.807617"/>
</g>
<path style="fill:none;stroke-width:1.2;stroke-linecap:butt;stroke-linejoin:miter;stroke:rgb(0%,0%,0%);stroke-opacity:1;stroke-miterlimit:10;" d="M 198.582031 132.105469 L 194.398438 150 "/>
<path style="fill:none;stroke-width:1.2;stroke-linecap:butt;stroke-linejoin:miter;stroke:rgb(0%,0%,0%);stroke-opacity:1;stroke-miterlimit:10;" d="M 202.371094 134.878906 L 199.027344 149.195312 "/>
<path style="fill:none;stroke-width:1.2;stroke-linecap:butt;stroke-linejoin:miter;stroke:rgb(0%,0%,0%);stroke-opacity:1;stroke-miterlimit:10;" d="M 216.167969 126.78125 L 198.582031 132.105469 "/>
<path style="fill:none;stroke-width:1.2;stroke-linecap:butt;stroke-linejoin:miter;stroke:rgb(0%,0%,0%);stroke-opacity:1;stroke-miterlimit:10;" d="M 194.398438 150 L 207.800781 162.570312 "/>
<path style="fill:none;stroke-width:1.2;stroke-linecap:butt;stroke-linejoin:miter;stroke:rgb(0%,0%,0%);stroke-opacity:1;stroke-miterlimit:10;" d="M 207.800781 162.570312 L 225.390625 157.246094 "/>
<path style="fill:none;stroke-width:1.2;stroke-linecap:butt;stroke-linejoin:miter;stroke:rgb(0%,0%,0%);stroke-opacity:1;stroke-miterlimit:10;" d="M 208.308594 157.898438 L 222.378906 153.640625 "/>
<path style="fill:none;stroke-width:1.2;stroke-linecap:butt;stroke-linejoin:miter;stroke:rgb(0%,0%,0%);stroke-opacity:1;stroke-miterlimit:10;" d="M 207.800781 162.570312 L 203.617188 180.464844 "/>
<path style="fill:none;stroke-width:1.2;stroke-linecap:butt;stroke-linejoin:miter;stroke:rgb(0%,0%,0%);stroke-opacity:1;stroke-miterlimit:10;" d="M 225.390625 157.246094 L 229.574219 139.351562 "/>
<path style="fill:none;stroke-width:1.2;stroke-linecap:butt;stroke-linejoin:miter;stroke:rgb(0%,0%,0%);stroke-opacity:1;stroke-miterlimit:10;" d="M 229.574219 139.351562 L 216.167969 126.78125 "/>
<path style="fill:none;stroke-width:1.2;stroke-linecap:butt;stroke-linejoin:miter;stroke:rgb(0%,0%,0%);stroke-opacity:1;stroke-miterlimit:10;" d="M 225.273438 141.25 L 214.550781 131.195312 "/>
<path style="fill:none;stroke-width:1.2;stroke-linecap:butt;stroke-linejoin:miter;stroke:rgb(0%,0%,0%);stroke-opacity:1;stroke-miterlimit:10;" d="M 229.574219 139.351562 L 247.160156 134.03125 "/>
<path style="fill:none;stroke-width:1.2;stroke-linecap:butt;stroke-linejoin:miter;stroke:rgb(0%,0%,0%);stroke-opacity:1;stroke-miterlimit:10;" d="M 247.160156 134.03125 L 255.957031 131.367188 "/>
<path style="fill:none;stroke-width:1.2;stroke-linecap:butt;stroke-linejoin:miter;stroke:rgb(20%,80%,80%);stroke-opacity:1;stroke-miterlimit:10;" d="M 255.957031 131.367188 L 264.75 128.707031 "/>
<path style="fill:none;stroke-width:1.2;stroke-linecap:butt;stroke-linejoin:miter;stroke:rgb(0%,0%,0%);stroke-opacity:1;stroke-miterlimit:10;" d="M 247.160156 134.03125 L 249.824219 142.824219 "/>
<path style="fill:none;stroke-width:1.2;stroke-linecap:butt;stroke-linejoin:miter;stroke:rgb(20%,80%,80%);stroke-opacity:1;stroke-miterlimit:10;" d="M 249.824219 142.824219 L 252.484375 151.617188 "/>
<path style="fill:none;stroke-width:1.2;stroke-linecap:butt;stroke-linejoin:miter;stroke:rgb(0%,0%,0%);stroke-opacity:1;stroke-miterlimit:10;" d="M 247.160156 134.03125 L 244.5 125.234375 "/>
<path style="fill:none;stroke-width:1.2;stroke-linecap:butt;stroke-linejoin:miter;stroke:rgb(20%,80%,80%);stroke-opacity:1;stroke-miterlimit:10;" d="M 244.5 125.234375 L 241.839844 116.441406 "/>
<path style=" stroke:none;fill-rule:nonzero;fill:rgb(100%,100%,100%);fill-opacity:1;" d="M 261.75 123.207031 L 267.75 123.207031 L 267.75 134.207031 L 261.75 134.207031 Z M 261.75 123.207031 "/>
<g style="fill:rgb(20%,80%,80%);fill-opacity:1;">
  <use xlink:href="#glyph0-4" x="261.75" y="131.870117"/>
</g>
<path style=" stroke:none;fill-rule:nonzero;fill:rgb(100%,100%,100%);fill-opacity:1;" d="M 249.484375 146.117188 L 255.484375 146.117188 L 255.484375 157.117188 L 249.484375 157.117188 Z M 249.484375 146.117188 "/>
<g style="fill:rgb(20%,80%,80%);fill-opacity:1;">
  <use xlink:href="#glyph0-4" x="249.484375" y="154.780273"/>
</g>
<path style=" stroke:none;fill-rule:nonzero;fill:rgb(100%,100%,100%);fill-opacity:1;" d="M 235.839844 110.941406 L 241.839844 110.941406 L 241.839844 121.941406 L 235.839844 121.941406 Z M 235.839844 110.941406 "/>
<g style="fill:rgb(20%,80%,80%);fill-opacity:1;">
  <use xlink:href="#glyph0-4" x="235.839844" y="119.604492"/>
</g>
<path style="fill:none;stroke-width:1.2;stroke-linecap:butt;stroke-linejoin:miter;stroke:rgb(0%,0%,0%);stroke-opacity:1;stroke-miterlimit:10;" d="M 203.617188 180.464844 L 201.523438 189.410156 "/>
<path style="fill:none;stroke-width:1.2;stroke-linecap:butt;stroke-linejoin:miter;stroke:rgb(20%,80%,80%);stroke-opacity:1;stroke-miterlimit:10;" d="M 201.523438 189.410156 L 199.433594 198.355469 "/>
<path style="fill:none;stroke-width:1.2;stroke-linecap:butt;stroke-linejoin:miter;stroke:rgb(0%,0%,0%);stroke-opacity:1;stroke-miterlimit:10;" d="M 203.617188 180.464844 L 194.671875 178.371094 "/>
<path style="fill:none;stroke-width:1.2;stroke-linecap:butt;stroke-linejoin:miter;stroke:rgb(20%,80%,80%);stroke-opacity:1;stroke-miterlimit:10;" d="M 194.671875 178.371094 L 185.722656 176.28125 "/>
<path style="fill:none;stroke-width:1.2;stroke-linecap:butt;stroke-linejoin:miter;stroke:rgb(0%,0%,0%);stroke-opacity:1;stroke-miterlimit:10;" d="M 203.617188 180.464844 L 212.5625 182.554688 "/>
<path style="fill:none;stroke-width:1.2;stroke-linecap:butt;stroke-linejoin:miter;stroke:rgb(20%,80%,80%);stroke-opacity:1;stroke-miterlimit:10;" d="M 212.5625 182.554688 L 221.511719 184.648438 "/>
<path style=" stroke:none;fill-rule:nonzero;fill:rgb(100%,100%,100%);fill-opacity:1;" d="M 196.433594 192.855469 L 202.433594 192.855469 L 202.433594 203.855469 L 196.433594 203.855469 Z M 196.433594 192.855469 "/>
<g style="fill:rgb(20%,80%,80%);fill-opacity:1;">
  <use xlink:href="#glyph0-4" x="196.433594" y="201.518555"/>
</g>
<path style=" stroke:none;fill-rule:nonzero;fill:rgb(100%,100%,100%);fill-opacity:1;" d="M 179.722656 170.78125 L 185.722656 170.78125 L 185.722656 181.78125 L 179.722656 181.78125 Z M 179.722656 170.78125 "/>
<g style="fill:rgb(20%,80%,80%);fill-opacity:1;">
  <use xlink:href="#glyph0-4" x="179.722656" y="179.444336"/>
</g>
<path style=" stroke:none;fill-rule:nonzero;fill:rgb(100%,100%,100%);fill-opacity:1;" d="M 218.511719 179.148438 L 224.511719 179.148438 L 224.511719 190.148438 L 218.511719 190.148438 Z M 218.511719 179.148438 "/>
<g style="fill:rgb(20%,80%,80%);fill-opacity:1;">
  <use xlink:href="#glyph0-4" x="218.511719" y="187.811523"/>
</g>
<path style="fill:none;stroke-width:1.2;stroke-linecap:butt;stroke-linejoin:miter;stroke:rgb(0%,0%,0%);stroke-opacity:1;stroke-miterlimit:10;" d="M 128.226562 153.398438 L 110.640625 158.722656 "/>
</g>
</svg>

<svg xmlns="http://www.w3.org/2000/svg" xmlns:xlink="http://www.w3.org/1999/xlink" width="300pt" height="300pt" viewBox="0 0 300 300"><defs><symbol overflow="visible"><path d="M.453 1.594v-7.938h4.5v7.938zm.5-.5h3.5v-6.938h-3.5zm0 0"/></symbol><symbol overflow="visible" id="a"><path d="M.89-6.563H2.08l2.906 5.485v-5.484h.86V0H4.656L1.75-5.484V0H.89zm0 0"/></symbol><symbol overflow="visible" id="b"><path d="M.89-6.563h.876v2.688H5v-2.688h.89V0H5v-3.125H1.766V0H.89zm0 0"/></symbol><symbol overflow="visible" id="c"><path d="M3.547-5.953c-.65 0-1.164.242-1.547.72-.375.48-.563 1.13-.563 1.952 0 .835.188 1.49.563 1.967.383.48.898.72 1.547.72.644 0 1.156-.24 1.53-.72.376-.476.564-1.132.564-1.968 0-.822-.187-1.474-.562-1.954-.375-.477-.887-.72-1.53-.72zm0-.734c.914 0 1.648.312 2.203.937.55.617.828 1.438.828 2.47 0 1.042-.277 1.87-.828 2.483-.555.617-1.29.922-2.203.922-.93 0-1.668-.305-2.22-.922C.774-1.41.5-2.237.5-3.28c0-1.033.273-1.853.828-2.47.55-.625 1.29-.938 2.22-.938zm0 0"/></symbol><symbol overflow="visible" id="d"><path d="M.89-6.563h3.766v.75h-2.89v1.938h2.61v.734h-2.61V0H.89zm0 0"/></symbol></defs><g><path fill="#fff" d="M0 0h300v300H0z"/><path d="M35.25 131.66l13.402 12.57M48.652 144.23l-4.183 17.89M48.652 144.23l8.797-2.664" stroke-width="1.2" stroke="#000" stroke-miterlimit="10" fill="none"/><path d="M57.45 141.566l8.792-2.66M66.242 138.906l6.703 6.285" stroke-width="1.2" stroke="#00f" stroke-miterlimit="10" fill="none"/><path d="M72.945 145.19l6.703 6.287" stroke-width="1.2" stroke="#000" stroke-miterlimit="10" fill="none"/><path d="M59.242 133.406h14v11h-14zm0 0" fill="#fff"/><g fill="#00f"><use xlink:href="#a" x="59.242" y="142.069"/><use xlink:href="#b" x="66.22" y="142.069"/></g><path d="M77.543 150.984l-2.094 8.946" stroke-width="1.2" stroke="#000" stroke-miterlimit="10" fill="none"/><path d="M75.45 159.93l-2.09 8.95" stroke-width="1.2" stroke="#f00" stroke-miterlimit="10" fill="none"/><path d="M81.75 151.97l-2.09 8.944" stroke-width="1.2" stroke="#000" stroke-miterlimit="10" fill="none"/><path d="M79.66 160.914l-2.094 8.95" stroke-width="1.2" stroke="#f00" stroke-miterlimit="10" fill="none"/><path d="M79.648 151.477l8.793-2.665" stroke-width="1.2" stroke="#000" stroke-miterlimit="10" fill="none"/><path d="M88.44 148.813l8.794-2.66" stroke-width="1.2" stroke="#00f" stroke-miterlimit="10" fill="none"/><path d="M71.46 163.87h8v11h-8zm0 0" fill="#fff"/><use xlink:href="#c" x="71.461" y="172.534" fill="#f00"/><path d="M97.234 146.152l2.094-8.945" stroke-width="1.2" stroke="#00f" stroke-miterlimit="10" fill="none"/><path d="M99.328 137.207l2.09-8.95M110.64 158.723l-6.703-6.286" stroke-width="1.2" stroke="#000" stroke-miterlimit="10" fill="none"/><path d="M103.938 152.438l-6.704-6.286" stroke-width="1.2" stroke="#00f" stroke-miterlimit="10" fill="none"/><path d="M94.234 140.652h7v11h-7zm0 0" fill="#fff"/><use xlink:href="#a" x="94.234" y="149.315" fill="#00f"/><path d="M101.418 128.258l17.59-5.32M119.008 122.938l13.402 12.57M132.41 135.508l13.406 12.57M132.41 135.508l-4.183 17.89M136.598 117.613l-4.188 17.895M145.816 148.078l17.586-5.324M163.402 142.754l2.094-8.95" stroke-width="1.2" stroke="#000" stroke-miterlimit="10" fill="none"/><path d="M165.496 133.805l2.094-8.946M167.59 124.86l-6.703-6.286" stroke-width="1.2" stroke="#00f" stroke-miterlimit="10" fill="none"/><path d="M160.887 118.574l-6.703-6.285" stroke-width="1.2" stroke="#000" stroke-miterlimit="10" fill="none"/><path d="M167.59 124.86l8.793-2.66" stroke-width="1.2" stroke="#00f" stroke-miterlimit="10" fill="none"/><path d="M176.383 122.2l8.793-2.665" stroke-width="1.2" stroke="#000" stroke-miterlimit="10" fill="none"/><path d="M164.59 119.36h7v11h-7zm0 0" fill="#fff"/><use xlink:href="#a" x="164.59" y="128.022" fill="#00f"/><path d="M154.184 112.29l-17.586 5.323M187.28 120.027l2.095-8.945" stroke-width="1.2" stroke="#000" stroke-miterlimit="10" fill="none"/><path d="M189.375 111.082l2.09-8.945" stroke-width="1.2" stroke="#f00" stroke-miterlimit="10" fill="none"/><path d="M183.07 119.043l2.094-8.945" stroke-width="1.2" stroke="#000" stroke-miterlimit="10" fill="none"/><path d="M185.164 110.098l2.09-8.95" stroke-width="1.2" stroke="#f00" stroke-miterlimit="10" fill="none"/><path d="M185.176 119.535l13.406 12.57" stroke-width="1.2" stroke="#000" stroke-miterlimit="10" fill="none"/><path d="M185.36 96.145h8v11h-8zm0 0" fill="#fff"/><use xlink:href="#c" x="185.359" y="104.808" fill="#f00"/><path d="M198.582 132.105L194.398 150M202.37 134.88l-3.343 14.315M216.168 126.78l-17.586 5.325M194.398 150l13.403 12.57M207.8 162.57l17.59-5.324M208.31 157.898l14.07-4.257M207.8 162.57l-4.183 17.895M225.39 157.246l4.184-17.894M229.574 139.352l-13.406-12.57M225.273 141.25l-10.722-10.055M229.574 139.352l17.586-5.32M247.16 134.03l8.797-2.663" stroke-width="1.2" stroke="#000" stroke-miterlimit="10" fill="none"/><path d="M255.957 131.367l8.793-2.66" stroke-width="1.2" stroke="#3cc" stroke-miterlimit="10" fill="none"/><path d="M247.16 134.03l2.664 8.794" stroke-width="1.2" stroke="#000" stroke-miterlimit="10" fill="none"/><path d="M249.824 142.824l2.66 8.793" stroke-width="1.2" stroke="#3cc" stroke-miterlimit="10" fill="none"/><path d="M247.16 134.03l-2.66-8.796" stroke-width="1.2" stroke="#000" stroke-miterlimit="10" fill="none"/><path d="M244.5 125.234l-2.66-8.793" stroke-width="1.2" stroke="#3cc" stroke-miterlimit="10" fill="none"/><path d="M261.75 123.207h6v11h-6zm0 0" fill="#fff"/><use xlink:href="#d" x="261.75" y="131.87" fill="#3cc"/><path d="M249.484 146.117h6v11h-6zm0 0" fill="#fff"/><use xlink:href="#d" x="249.484" y="154.78" fill="#3cc"/><path d="M235.84 110.94h6v11h-6zm0 0" fill="#fff"/><use xlink:href="#d" x="235.84" y="119.604" fill="#3cc"/><path d="M203.617 180.465l-2.094 8.945" stroke-width="1.2" stroke="#000" stroke-miterlimit="10" fill="none"/><path d="M201.523 189.41l-2.09 8.945" stroke-width="1.2" stroke="#3cc" stroke-miterlimit="10" fill="none"/><path d="M203.617 180.465l-8.945-2.094" stroke-width="1.2" stroke="#000" stroke-miterlimit="10" fill="none"/><path d="M194.672 178.37l-8.95-2.09" stroke-width="1.2" stroke="#3cc" stroke-miterlimit="10" fill="none"/><path d="M203.617 180.465l8.946 2.09" stroke-width="1.2" stroke="#000" stroke-miterlimit="10" fill="none"/><path d="M212.563 182.555l8.95 2.093" stroke-width="1.2" stroke="#3cc" stroke-miterlimit="10" fill="none"/><path d="M196.434 192.855h6v11h-6zm0 0" fill="#fff"/><use xlink:href="#d" x="196.434" y="201.519" fill="#3cc"/><path d="M179.723 170.78h6v11h-6zm0 0" fill="#fff"/><use xlink:href="#d" x="179.723" y="179.444" fill="#3cc"/><path d="M218.512 179.148h6v11h-6zm0 0" fill="#fff"/><use xlink:href="#d" x="218.512" y="187.812" fill="#3cc"/><path d="M128.227 153.398l-17.586 5.325" stroke-width="1.2" stroke="#000" stroke-miterlimit="10" fill="none"/></g></svg>
